assets/images/buffertrigger-snapshot.svg

<?xml version="1.0" encoding="UTF-8" standalone="no"?>
<svg
   xmlns:dc="http://purl.org/dc/elements/1.1/"
   xmlns:cc="http://creativecommons.org/ns#"
   xmlns:rdf="http://www.w3.org/1999/02/22-rdf-syntax-ns#"
   xmlns:svg="http://www.w3.org/2000/svg"
   xmlns="http://www.w3.org/2000/svg"
   xmlns:sodipodi="http://sodipodi.sourceforge.net/DTD/sodipodi-0.dtd"
   xmlns:inkscape="http://www.inkscape.org/namespaces/inkscape"
   width="150mm"
   height="86.888481mm"
   id="SvgGdi_output"
   version="1.1"
   sodipodi:docname="buffertrigger-snapshot.svg"
   inkscape:version="0.92.3 (2405546, 2018-03-11)">
  <metadata
     id="metadata44">
    <rdf:RDF>
      <cc:Work
         rdf:about="">
        <dc:format>image/svg+xml</dc:format>
        <dc:type
           rdf:resource="http://purl.org/dc/dcmitype/StillImage" />
        <dc:title></dc:title>
      </cc:Work>
    </rdf:RDF>
  </metadata>
  <sodipodi:namedview
     pagecolor="#ffffff"
     bordercolor="#666666"
     borderopacity="1"
     objecttolerance="10"
     gridtolerance="10"
     guidetolerance="10"
     inkscape:pageopacity="0"
     inkscape:pageshadow="2"
     inkscape:window-width="3000"
     inkscape:window-height="1875"
     id="namedview42"
     showgrid="false"
     units="mm"
     inkscape:zoom="1.1901448"
     inkscape:cx="152.07256"
     inkscape:cy="99.147598"
     inkscape:window-x="-13"
     inkscape:window-y="-13"
     inkscape:window-maximized="1"
     inkscape:current-layer="SvgGdi_output" />
  <g
     id="root_group"
     transform="translate(132.57207,62.422279)">
    <line
       y1="28.5"
       style="fill:none;stroke:#a9a9a9;stroke-width:1.5;stroke-miterlimit:9"
       id="301"
       x2="240"
       y2="28.5"
       x1="177" />
    <line
       y1="28.5"
       style="fill:none;stroke:#a9a9a9;stroke-width:1.5;stroke-miterlimit:9"
       id="302"
       x2="120"
       y2="28.5"
       x1="57" />
    <line
       y1="148.5"
       style="fill:none;stroke:#a9a9a9;stroke-width:1.5;stroke-miterlimit:9"
       id="303"
       x2="120"
       y2="28.5"
       x1="57" />
    <circle
       id="304"
       cy="15"
       cx="15"
       transform="matrix(1.5,0,0,1.5,246,6)"
       style="fill:#449adf"
       r="15" />
    <path
       style="fill:none;stroke:#ffffff;stroke-width:2;stroke-miterlimit:9"
       transform="matrix(1.5,0,0,1.5,246,6)"
       id="305"
       d="M 20.824,23.115 V 7.098999 M 17.3572,17.48 V 12.7339 M 13.8904,21.2046 V 9.009602 M 10.4236,18.6248 V 11.5896 M 6.9568,16.3923 V 13.822"
       inkscape:connector-curvature="0" />
    <text
       id="306"
       x="246"
       y="58.5"
       style="font-size:15.74666691px;font-family:'Microsoft Sans Serif';fill:#000000"
       clip-path="url(#308_text_clipper)">
      <tspan
         dy="11.81pt"
         id="310">Concat</tspan>
    </text>
    <circle
       id="312"
       cy="15"
       cx="15"
       transform="matrix(1.5,0,0,1.5,126,6)"
       style="fill:#eec04b"
       r="15" />
    <path
       style="fill:#ffffff;fill-rule:evenodd"
       transform="matrix(1.5,0,0,1.5,126,6)"
       id="313"
       d="M 12.246,6.0137 V 6.019559 C 12.05806,6.020259 11.89471,6.040434 11.76748,6.066434 10.86869,6.352735 10.89631,6.934374 9.87688,7.685534 8.863379,8.264335 8.35338,7.819914 7.61518,8.419914 6.87845,9.015514 7.39292,10.38251 7.08393,10.64841 6.77722,11.18001 5.82553,11.65471 5.65233,12.32611 5.50916,13.18481 6.04191,13.79701 6.02147,14.53311 6.08287,15.14641 5.41127,15.49489 5.5078,15.99211 5.79702,16.80421 6.35438,17.29221 6.6172,17.51751 6.663351,17.54951 6.700028,17.5985 6.714856,17.6015 6.790713,17.792 6.858586,17.98645 6.955086,18.16595 6.949606,18.13995 6.948576,18.11382 6.943367,18.08782 6.998228,18.30542 7.055077,18.52401 7.132816,18.73821 8.683116,22.09901 12.81412,24.68611 17.34182,24.11711 19.54102,23.84771 22.82442,22.33171 24.16602,18.73821 23.22044,19.58671 21.53152,20.32421 20.77732,20.38081 23.33002,19.10511 24.70712,16.93741 24.32031,13.97461 23.79154,15.23341 23.09341,16.20131 22.22071,16.86521 24.07451,13.97551 23.75691,12.48131 22.38478,10.83981 23.36615,13.53881 22.09719,16.53431 19.33208,18.66401 20.45238,18.78541 21.51657,18.51614 22.50198,17.71284 21.01318,19.37354 19.14968,20.20834 17.01368,20.43554 18.03358,21.30254 19.01818,21.69454 19.95898,21.52734 17.34458,22.24884 15.15478,21.45428 12.49018,18.80074 12.3507,19.51504 13.10514,20.62754 13.88278,21.33784 9.373278,19.38284 8.976177,13.29584 14.46872,11.79294 14.47202,11.79294 14.47518,11.79384 14.47848,11.79294 17.74978,13.70674 21.86528,13.58084 22.05078,12.34372 22.50885,10.86082 19.96508,7.805223 16.16208,7.007823 15.4618,6.871123 14.79228,6.817344 14.15428,6.835943 14.16706,6.835943 14.17858,6.836182 14.19139,6.826178 13.58399,6.177278 12.80989,6.011678 12.24609,6.013678 Z M 17.17769,9.046878 C 17.72373,9.046878 18.22259,9.543848 18.22259,10.08988 18.22259,10.63598 17.72371,11.13288 17.17769,11.13288 16.63165,11.13288 16.13469,10.63601 16.13469,10.08988 16.13474,9.543879 16.63162,9.046778 17.17769,9.046878 Z"
       inkscape:connector-curvature="0" />
    <text
       id="314"
       x="126"
       y="58.5"
       style="font-size:15.74666691px;font-family:'Microsoft Sans Serif';fill:#000000"
       clip-path="url(#316_text_clipper)">
      <tspan
         dy="11.81pt"
         id="318">Triggered</tspan>
    </text>
    <text
       id="320"
       x="126"
       y="76.330002"
       style="font-size:15.74666691px;font-family:'Microsoft Sans Serif';fill:#000000"
       clip-path="url(#322_text_clipper)">
      <tspan
         dy="11.81pt"
         id="324">Buffer</tspan>
    </text>
    <path
       d="M 31.179,5.2 C 34.9985,11.0918 34.9814,18.682 31.13552,24.557"
       style="fill:none;stroke:#a9a9a9;stroke-width:2;stroke-miterlimit:9"
       transform="matrix(1.5,0,0,1.5,6,6)"
       id="326"
       inkscape:connector-curvature="0" />
    <circle
       id="327"
       cy="15"
       cx="15"
       transform="matrix(1.5,0,0,1.5,6,6)"
       style="fill:#5bb27e"
       r="15" />
    <path
       style="fill:#ffffff;fill-rule:evenodd"
       transform="matrix(1.5,0,0,1.5,6,6)"
       id="328"
       d="M 15.262,7.0869 C 15.0337,7.0969 14.80894,7.1829 14.63699,7.3336 L 10.40169,10.9932 H 6.50359 C 5.98053,10.9932 5.50289,11.4652 5.50029,11.9883 V 17.0131 C 5.4986,17.5389 5.97781,18.0181 6.50359,18.0164 H 10.34409 L 14.63699,21.7336 C 15.21304,22.23 16.28929,21.7336 16.28999,20.977 V 8.089999 C 16.29189,7.555899 15.79594,7.071799 15.26199,7.086699 Z"
       inkscape:connector-curvature="0" />
    <path
       style="fill:#ffffff;fill-rule:evenodd"
       transform="matrix(1.5,0,0,1.5,6,6)"
       id="329"
       d="M 19.242,11.136 C 19.85996,12.1101 20.22442,13.2733 20.22442,14.515 20.22442,15.7378 19.86821,16.8827 19.26739,17.847 18.57312,19.02 16.82469,17.93 17.57209,16.7903 17.98656,16.1252 18.22639,15.3523 18.22639,14.515 18.22639,13.663 17.98027,12.8775 17.55451,12.2064 17.11611,11.5347 17.60803,10.6463 18.40998,10.6614 18.75002,10.6714 19.06352,10.8465 19.24201,11.136 Z"
       inkscape:connector-curvature="0" />
    <path
       style="fill:#ffffff;fill-rule:evenodd"
       transform="matrix(1.5,0,0,1.5,6,6)"
       id="330"
       d="M 21.92,7.5284 C 23.4568,9.4572 24.379,11.9073 24.379,14.5636 24.379,17.2016 23.46877,19.6367 21.9493,21.5597 21.12371,22.6053 19.5553,21.367 20.3809,20.3214 21.6336,18.736 22.3809,16.743 22.3809,14.5636 22.3809,12.3686 21.62445,10.3628 20.3575,8.7726 19.81921,8.1166 20.29216,7.1306 21.1407,7.1398 21.44622,7.1398 21.73332,7.2865 21.92,7.5284 Z"
       inkscape:connector-curvature="0" />
    <text
       id="331"
       x="6"
       y="58.5"
       style="font-size:15.74666691px;font-family:'Microsoft Sans Serif';fill:#000000"
       clip-path="url(#333_text_clipper)">
      <tspan
         dy="11.81pt"
         id="335">AudioCapture</tspan>
    </text>
    <path
       d="M 31.179,5.2 C 34.9985,11.0918 34.9814,18.682 31.13552,24.557"
       style="fill:none;stroke:#a9a9a9;stroke-width:2;stroke-miterlimit:9"
       transform="matrix(1.5,0,0,1.5,6,126)"
       id="337"
       inkscape:connector-curvature="0" />
    <circle
       id="338"
       cy="15"
       cx="15"
       transform="matrix(1.5,0,0,1.5,6,126)"
       style="fill:#5bb27e"
       r="15" />
    <path
       style="fill:#ffffff;fill-rule:evenodd"
       transform="matrix(1.5,0,0,1.5,6,126)"
       id="339"
       d="M 8.5404,18.526 C 8.154759,18.14036 8.426559,17.3734 8.7512,17.0487 9.0693,16.7306 9.8857,16.65478 10.3397,17.03595 L 12.5301,18.80525 12.82094,9.664146 C 12.82094,9.305857 13.42471,8.739877 14.05254,8.739877 14.79871,8.739877 15.36764,9.316096 15.36764,9.695367 L 15.5586,15.04327 20.0645,16.74627 C 20.25033,16.81 20.49544,16.99536 20.49518,17.22225 L 20.49808,21.04985 19.11318,23.37955 V 24.51755 H 13.23218 V 23.37955 Z"
       inkscape:connector-curvature="0" />
    <path
       style="fill:none;stroke:#ffffff;stroke-width:2;stroke-miterlimit:9"
       transform="matrix(1.5,0,0,1.5,6,126)"
       id="340"
       d="M 10.482,12.156 C 9.063601,9.8878 10.57304,6.5688 13.2149,6.1474 15.8164,5.52346 18.4832,8.0098 18.0432,10.6485 L 17.97693,11.02591"
       inkscape:connector-curvature="0" />
    <text
       id="341"
       x="6"
       y="178.5"
       style="font-size:15.74666691px;font-family:'Microsoft Sans Serif';fill:#000000"
       clip-path="url(#343_text_clipper)">
      <tspan
         dy="11.81pt"
         id="345">KeyDown</tspan>
    </text>
  </g>
  <defs
     id="clips_hatches_and_gradients">
    <clipPath
       id="308_text_clipper">
      <rect
         x="246"
         y="58.5"
         width="56.650002"
         height="19.799999"
         id="309" />
    </clipPath>
    <clipPath
       id="316_text_clipper">
      <rect
         x="126"
         y="58.5"
         width="74.760002"
         height="39.59"
         id="317" />
    </clipPath>
    <clipPath
       id="322_text_clipper">
      <rect
         x="126"
         y="76.330002"
         width="74.760002"
         height="39.59"
         id="323" />
    </clipPath>
    <clipPath
       id="333_text_clipper">
      <rect
         x="6"
         y="58.5"
         width="104.53"
         height="19.799999"
         id="334" />
    </clipPath>
    <clipPath
       id="343_text_clipper">
      <rect
         x="6"
         y="178.5"
         width="74.669998"
         height="19.799999"
         id="344" />
    </clipPath>
  </defs>
</svg>

<?xml version="1.0" encoding="UTF-8" standalone="no"?>
<svg
   width="150mm"
   height="86.888481mm"
   id="SvgGdi_output"
   version="1.1"
   sodipodi:docname="buffertrigger-snapshot.svg"
   inkscape:version="1.1.2 (b8e25be833, 2022-02-05)"
   xmlns:inkscape="http://www.inkscape.org/namespaces/inkscape"
   xmlns:sodipodi="http://sodipodi.sourceforge.net/DTD/sodipodi-0.dtd"
   xmlns="http://www.w3.org/2000/svg"
   xmlns:svg="http://www.w3.org/2000/svg"
   xmlns:rdf="http://www.w3.org/1999/02/22-rdf-syntax-ns#"
   xmlns:cc="http://creativecommons.org/ns#"
   xmlns:dc="http://purl.org/dc/elements/1.1/">
  <metadata
     id="metadata44">
    <rdf:RDF>
      <cc:Work
         rdf:about="">
        <dc:format>image/svg+xml</dc:format>
        <dc:type
           rdf:resource="http://purl.org/dc/dcmitype/StillImage" />
      </cc:Work>
    </rdf:RDF>
  </metadata>
  <sodipodi:namedview
     pagecolor="#ffffff"
     bordercolor="#666666"
     borderopacity="1"
     objecttolerance="10"
     gridtolerance="10"
     guidetolerance="10"
     inkscape:pageopacity="0"
     inkscape:pageshadow="2"
     inkscape:window-width="2560"
     inkscape:window-height="1334"
     id="namedview42"
     showgrid="false"
     units="mm"
     inkscape:zoom="1.6831189"
     inkscape:cx="257.85463"
     inkscape:cy="83.178912"
     inkscape:window-x="-11"
     inkscape:window-y="-11"
     inkscape:window-maximized="1"
     inkscape:current-layer="SvgGdi_output"
     inkscape:pagecheckerboard="0"
     inkscape:document-units="mm" />
  <defs
     id="clips_hatches_and_gradients">
    <clipPath
       id="308_text_clipper">
      <rect
         x="246"
         y="58.5"
         width="56.650002"
         height="19.799999"
         id="309" />
    </clipPath>
    <clipPath
       id="316_text_clipper">
      <rect
         x="126"
         y="58.5"
         width="74.760002"
         height="39.59"
         id="317" />
    </clipPath>
    <clipPath
       id="322_text_clipper">
      <rect
         x="126"
         y="76.330002"
         width="74.760002"
         height="39.59"
         id="323" />
    </clipPath>
    <clipPath
       id="333_text_clipper">
      <rect
         x="6"
         y="58.5"
         width="104.53"
         height="19.799999"
         id="334" />
    </clipPath>
    <clipPath
       id="343_text_clipper">
      <rect
         x="6"
         y="178.5"
         width="74.669998"
         height="19.799999"
         id="344" />
    </clipPath>
    <clipPath
       id="57_text_clipper">
      <rect
         x="164"
         y="39"
         width="39.560001"
         height="13.83"
         id="58" />
    </clipPath>
    <clipPath
       id="65_text_clipper">
      <rect
         x="84"
         y="39"
         width="69.839996"
         height="13.83"
         id="66" />
    </clipPath>
    <clipPath
       id="76_text_clipper">
      <rect
         x="4"
         y="39"
         width="73.010002"
         height="13.83"
         id="77" />
    </clipPath>
    <clipPath
       id="86_text_clipper">
      <rect
         x="4"
         y="119"
         width="52.150002"
         height="13.83"
         id="87" />
    </clipPath>
  </defs>
  <g
     style="shape-rendering:auto"
     id="root_group-3"
     transform="matrix(1.4928972,0,0,1.4928972,132.60048,62.45069)">
    <line
       y1="19"
       style="opacity:1;fill:none;stroke:#a9a9a9;stroke-width:1;stroke-linecap:butt;stroke-linejoin:miter;stroke-miterlimit:9"
       id="50"
       x2="160"
       y2="19"
       x1="118" />
    <line
       y1="19"
       style="opacity:1;fill:none;stroke:#a9a9a9;stroke-width:1;stroke-linecap:butt;stroke-linejoin:miter;stroke-miterlimit:9"
       id="51"
       x2="80"
       y2="19"
       x1="38" />
    <line
       y1="99"
       style="opacity:1;fill:none;stroke:#a9a9a9;stroke-width:1;stroke-linecap:butt;stroke-linejoin:miter;stroke-miterlimit:9"
       id="52"
       x2="80"
       y2="19"
       x1="38" />
    <circle
       id="53"
       cy="15"
       cx="15"
       transform="translate(164,4)"
       style="opacity:1;fill:#449adf;stroke:none"
       r="15" />
    <path
       style="opacity:1;fill:none;stroke:#ffffff;stroke-width:2;stroke-linecap:butt;stroke-linejoin:miter;stroke-miterlimit:9"
       transform="translate(164,4)"
       id="54"
       d="M 20.824,23.115 V 7.098999 M 17.3572,17.48 v -4.7461 m -3.4668,8.4707 V 9.009602 M 10.4236,18.6248 V 11.5896 M 6.9568,16.3923 V 13.822" />
    <text
       id="55"
       x="164"
       y="39"
       style="font-size:11px;font-family:'Microsoft Sans Serif';opacity:1;fill:#000000;stroke:none"
       clip-path="url(#57_text_clipper)"><tspan
         dy="8.25pt"
         id="59">Concat</tspan></text>
    <circle
       id="61"
       cy="15"
       cx="15"
       transform="translate(84,4)"
       style="opacity:1;fill:#eec04b;stroke:none"
       r="15" />
    <path
       style="opacity:1;fill:#ffffff;fill-rule:evenodd;stroke:none"
       transform="translate(84,4)"
       id="62"
       d="m 12.246,6.0137 v 0.00586 c -0.18794,7e-4 -0.35129,0.020875 -0.47852,0.046875 -0.89879,0.286301 -0.87117,0.86794 -1.8906,1.6191 -1.013501,0.578801 -1.5235,0.13438 -2.2617,0.73438 -0.73673,0.5956 -0.22226,1.962596 -0.53125,2.228496 -0.30671,0.5316 -1.2584,1.0063 -1.4316,1.6777 -0.14317,0.8587 0.38958,1.4709 0.36914,2.207 0.0614,0.6133 -0.6102,0.96178 -0.51367,1.459 0.28922,0.8121 0.84658,1.3001 1.1094,1.5254 0.046151,0.032 0.082828,0.08099 0.097656,0.08399 0.075857,0.1905 0.14373,0.38495 0.24023,0.56445 -0.00548,-0.026 -0.00651,-0.05213 -0.011719,-0.07813 0.054861,0.2176 0.11171,0.43619 0.189449,0.65039 1.5503,3.3608 5.681304,5.9479 10.209004,5.3789 2.1992,-0.2694 5.4826,-1.7854 6.8242,-5.3789 -0.94558,0.8485 -2.6345,1.586 -3.3887,1.6426 2.5527,-1.2757 3.9298,-3.4434 3.54299,-6.4062 -0.52877,1.2588 -1.2269,2.2267 -2.0996,2.8906 1.8538,-2.8897 1.5362,-4.3839 0.16407,-6.0254 0.98137,2.699 -0.28759,5.6945 -3.0527,7.8242 1.1203,0.1214 2.18449,-0.14787 3.1699,-0.95117 -1.4888,1.6607 -3.3523,2.4955 -5.4883,2.7227 1.0199,0.867 2.0045,1.259 2.9453,1.0918 -2.6144,0.7215 -4.8042,-0.07306 -7.4688,-2.7266 -0.13948,0.7143 0.61496,1.8268 1.3926,2.5371 -4.509502,-1.955 -4.906603,-8.042 0.58594,-9.5449 0.0033,0 0.0065,9e-4 0.0098,0 3.2713,1.9138 7.3868,1.7879 7.5723,0.55078 0.45807,-1.4829 -2.0857,-4.538497 -5.8887,-5.335897 -0.70028,-0.1367 -1.3698,-0.190479 -2.0078,-0.17188 0.01278,0 0.0243,2.39e-4 0.03711,-0.00977 -0.6074,-0.6489 -1.3815,-0.8145 -1.9453,-0.8125 z m 4.93169,3.033178 c 0.54604,0 1.0449,0.49697 1.0449,1.043002 0,0.5461 -0.49888,1.043 -1.0449,1.043 -0.54604,0 -1.043,-0.49687 -1.043,-1.043 5e-5,-0.546001 0.49693,-1.043102 1.043,-1.043002 z" />
    <text
       id="63"
       x="84"
       y="39"
       style="font-size:11px;font-family:'Microsoft Sans Serif';opacity:1;fill:#000000;stroke:none"
       clip-path="url(#65_text_clipper)"><tspan
         dy="8.25pt"
         id="67">BufferTrigger</tspan></text>
    <path
       d="m 31.179,5.2 c 3.8195,5.8918 3.8024,13.482 -0.04348,19.357"
       style="opacity:1;fill:none;stroke:#a9a9a9;stroke-width:2;stroke-linecap:butt;stroke-linejoin:miter;stroke-miterlimit:9"
       transform="translate(4,4)"
       id="69" />
    <circle
       id="70"
       cy="15"
       cx="15"
       transform="translate(4,4)"
       style="opacity:1;fill:#5bb27e;stroke:none"
       r="15" />
    <path
       style="opacity:1;fill:#ffffff;fill-rule:evenodd;stroke:none"
       transform="translate(4,4)"
       id="71"
       d="m 15.262,7.0869 c -0.2283,0.01 -0.45306,0.096 -0.62501,0.2467 l -4.2353,3.6596 h -3.8981 c -0.52306,0 -1.0007,0.472 -1.0033,0.9951 v 5.0248 c -0.00169,0.5258 0.47752,1.005 1.0033,1.0033 h 3.8405 l 4.2929,3.7172 c 0.57605,0.4964 1.6523,0 1.653,-0.7566 V 8.089999 c 0.0019,-0.5341 -0.49405,-1.0182 -1.028,-1.0033 z" />
    <path
       style="opacity:1;fill:#ffffff;fill-rule:evenodd;stroke:none"
       transform="translate(4,4)"
       id="72"
       d="m 19.242,11.136 c 0.61796,0.9741 0.98242,2.1373 0.98242,3.379 0,1.2228 -0.35621,2.3677 -0.95703,3.332 -0.69427,1.173 -2.4427,0.083 -1.6953,-1.0567 0.41447,-0.6651 0.6543,-1.438 0.6543,-2.2753 0,-0.852 -0.24612,-1.6375 -0.67188,-2.3086 -0.4384,-0.6717 0.05352,-1.5601 0.85547,-1.545 0.34004,0.01 0.65354,0.1851 0.83203,0.4746 z" />
    <path
       style="opacity:1;fill:#ffffff;fill-rule:evenodd;stroke:none"
       transform="translate(4,4)"
       id="73"
       d="m 21.92,7.5284 c 1.5368,1.9288 2.459,4.3789 2.459,7.0352 0,2.638 -0.91023,5.0731 -2.4297,6.9961 -0.82559,1.0456 -2.394,-0.1927 -1.5684,-1.2383 1.2527,-1.5854 2,-3.5784 2,-5.7578 0,-2.195 -0.75645,-4.2008 -2.0234,-5.791 -0.53829,-0.656 -0.06534,-1.642 0.7832,-1.6328 0.30552,0 0.59262,0.1467 0.7793,0.3886 z" />
    <text
       id="74"
       x="4"
       y="39"
       style="font-size:11px;font-family:'Microsoft Sans Serif';opacity:1;fill:#000000;stroke:none"
       clip-path="url(#76_text_clipper)"><tspan
         dy="8.25pt"
         id="78">AudioCapture</tspan></text>
    <path
       d="m 31.179,5.2 c 3.8195,5.8918 3.8024,13.482 -0.04348,19.357"
       style="opacity:1;fill:none;stroke:#a9a9a9;stroke-width:2;stroke-linecap:butt;stroke-linejoin:miter;stroke-miterlimit:9"
       transform="translate(4,84)"
       id="80" />
    <circle
       id="81"
       cy="15"
       cx="15"
       transform="translate(4,84)"
       style="opacity:1;fill:#5bb27e;stroke:none"
       r="15" />
    <path
       style="opacity:1;fill:#ffffff;fill-rule:evenodd;stroke:none"
       transform="translate(4,84)"
       id="82"
       d="M 8.5404,18.526 C 8.154759,18.14036 8.426559,17.3734 8.7512,17.0487 9.0693,16.7306 9.8857,16.65478 10.3397,17.03595 l 2.1904,1.7693 0.29084,-9.141104 c 0,-0.358289 0.60377,-0.924269 1.2316,-0.924269 0.74617,0 1.3151,0.576219 1.3151,0.95549 l 0.19096,5.347903 4.5059,1.703 c 0.18583,0.06373 0.43094,0.24909 0.43068,0.47598 l 0.0029,3.8276 -1.3849,2.3297 v 1.138 h -5.881 v -1.138 z" />
    <path
       style="opacity:1;fill:none;stroke:#ffffff;stroke-width:2;stroke-linecap:butt;stroke-linejoin:miter;stroke-miterlimit:9"
       transform="translate(4,84)"
       id="83"
       d="m 10.482,12.156 c -1.418399,-2.2682 0.09104,-5.5872 2.7329,-6.0086 2.6015,-0.62394 5.2683,1.8624 4.8283,4.5011 l -0.06627,0.37741" />
    <text
       id="84"
       x="4"
       y="119"
       style="font-size:11px;font-family:'Microsoft Sans Serif';opacity:1;fill:#000000;stroke:none"
       clip-path="url(#86_text_clipper)"><tspan
         dy="8.25pt"
         id="88">KeyDown</tspan></text>
  </g>
</svg>
